X: 20781
T: OH MEGAN EE!
T: FROM THE "CASTLE SPECTRE."
C: Michael Kelly.
Q: "Slow."
%R: air, waltz
B: W. Hamilton "Universal Tune-Book" Vol. 2 Glasgow 1846 p.78 #1
S: http://s3-eu-west-1.amazonaws.com/itma.dl.printmaterial/book_pdfs/hamiltonvol2web.pdf
Z: 2016 John Chambers <jc:trillian.mit.edu>
M: 3/8
L: 1/8
K: C
% - - - - - - - - - - - - - - - - - - - - - - - - -
[|\
e>fe | d<gz | c2d | B2z | g^f=f | e2z | d>cd | e2z |\
e>ee | d<gz | c2d | B2z | g^f=f | e2z | d>cd | e2z |
d>ed | d2B | g2e | d2z/d/ | (d>e)d | d2B | e2c | A2zd/ |\
(d>^c)d | (e>d)e | (^f>e)f | g2Hz | g^f=f | e2z | d>cd | e2z |
g^f=f | e2z | d>cd | e2z | aaa | g2z | f>ef | e2z |\
c2z | aaa | g2z | f>ef | e2z | d>cd | He2z !p!| d>cd |\
e2z | !pp!d>cd | c3 H|]
% - - - - - - - - - - - - - - - - - - - - - - - - -

%%sep 1 1 500
%%sep 1 1 500

